X: 14836
T: Garey Ford
R: jig
M: 6/8
K: Aminor
|:A2 A AGE|GED DEG|A2 A AGE|GAc BAG|
A2 A AGE|GED DEG|A2 A AGA|1 cBG ABG:|2 cBG ABc||
|:d2 c cBA|c2B BAG|B2B B2B|1 AGE DBc|
d2 c cBA|c2B Bcd|edc BAG|B2A ABc:|2 AGE DEG|
A2 A AGE|GED DEG|A2 A AGA|cBG ABG||

